X:1
T:The Gothenburg City Pipeband
M:C
L:1/8
Q:80
C:
S:March
K:HP
[| {g}A3/2B | \
{GdG}c2{GdG}c2{GBG}A2{g}ce | \
a2{g}a3/2g/2{a}f3{g}f |
e2a3/2f/2{g}ecAc | \
{g}B2{GdGe}Bc{gBd}B2{g}AB | \
{GdG}c2{GdG}c2{GBG}A2{g}ce |
a2{g}a3/2g/2{a}f3{g}f | \
e2a3/2f/2{g}ecAc | \
{g}A2{GAG}AB{G}A2{g}AB |
{GdG}c2{GdG}c2{GBG}A2{g}ce | \
a2{g}a3/2g/2{a}f3{g}f | \
e2a3/2f/2{g}ecAc |
{g}B2{GdGe}Bc{gBd}B2{g}AB | \
{GdG}c2{GdG}c2{GBG}A2{g}ce | \
a2{g}a3/2g/2{a}f3{g}f |
e2a3/2f/2{g}ecAc | \
{g}A2{GAG}AB{G}A2{g}fg | \
a2{g}a3/2g/2{a}f3{g}f |
e3/2c/2Ac{gef}e2fg | \
a2e3/2a/2fecA | \
{g}B2{GdGe}Bc{gBd}B2{g}fg |
a2{g}a3/2g/2{a}f3{g}f | \
e3/2c/2Ac{gef}e2{g}cB | \
{A}A2a3/2f/2ecdB |
{g}A2{GAG}AB{G}A2{g}fg | \
a2{g}a3/2g/2{a}f3{g}f | \
e3/2c/2Ac{gef}e2fg |
a2e3/2a/2fecA | \
{g}B2{GdGe}Bc{gBd}B2{g}AB | \
{GdG}c2{GdG}c2{GBG}A2{g}ce |
a2{g}a3/2g/2{a}f3{g}f | \
e2a3/2f/2{g}ecdB | \
{g}A2{GAG}AB{G}A2 |
